src/lib/packages/icons/src/assets/line/file-edit.svg

<svg width="24" height="24" viewBox="0 0 24 24" fill="none" xmlns="http://www.w3.org/2000/svg">
<path d="M20.53 8.47L14.53 2.47C14.389 2.329 14.199 2.25 14 2.25H8C5.582 2.25 4.25 3.582 4.25 6V18C4.25 20.418 5.582 21.75 8 21.75H17C19.418 21.75 20.75 20.418 20.75 18V9C20.75 8.801 20.671 8.61 20.53 8.47ZM14.75 4.811L18.189 8.25H17C15.423 8.25 14.75 7.577 14.75 6V4.811ZM17 20.25H8C6.423 20.25 5.75 19.577 5.75 18V6C5.75 4.423 6.423 3.75 8 3.75H13.25V6C13.25 8.418 14.582 9.75 17 9.75H19.25V18C19.25 19.577 18.577 20.25 17 20.25ZM15.7791 10.23C15.4691 9.92 15.0581 9.75 14.6211 9.75C14.6201 9.75 14.6189 9.75 14.6189 9.75C14.1809 9.75 13.768 9.92199 13.46 10.232L7.96899 15.749C7.82799 15.889 7.75 16.08 7.75 16.278V18.5C7.75 18.914 8.086 19.25 8.5 19.25H10.7229C10.9209 19.25 11.112 19.171 11.252 19.031L16.7681 13.541C17.0791 13.231 17.249 12.82 17.25 12.382C17.25 11.944 17.08 11.531 16.77 11.221L15.7791 10.23ZM14.6211 11.25C14.6471 11.25 14.685 11.257 14.719 11.291L15.709 12.282C15.743 12.316 15.75 12.354 15.75 12.381C15.75 12.408 15.743 12.445 15.709 12.479L15.073 13.112L13.8889 11.928L14.522 11.292C14.557 11.257 14.5951 11.25 14.6211 11.25ZM10.4131 17.75H9.25V16.587L12.8311 12.989L14.01 14.168L10.4131 17.75Z" fill="currentColor"/>
</svg>

<svg xmlns="http://www.w3.org/2000/svg" width="24" height="24" fill="none"><path fill="currentColor" d="m20.53 8.47-6-6a.749.749 0 0 0-.53-.22H8C5.582 2.25 4.25 3.582 4.25 6v12c0 2.418 1.332 3.75 3.75 3.75h9c2.418 0 3.75-1.332 3.75-3.75V9a.747.747 0 0 0-.22-.53Zm-5.78-3.659 3.439 3.439H17c-1.577 0-2.25-.673-2.25-2.25V4.811ZM17 20.25H8c-1.577 0-2.25-.673-2.25-2.25V6c0-1.577.673-2.25 2.25-2.25h5.25V6c0 2.418 1.332 3.75 3.75 3.75h2.25V18c0 1.577-.673 2.25-2.25 2.25Zm-1.22-10.02c-.31-.31-.722-.48-1.159-.48h-.002c-.438 0-.851.172-1.159.482l-5.491 5.517a.745.745 0 0 0-.219.529V18.5c0 .414.336.75.75.75h2.223a.75.75 0 0 0 .529-.219l5.516-5.49c.311-.31.481-.721.482-1.159 0-.438-.17-.851-.48-1.161l-.99-.991Zm-1.159 1.02c.026 0 .064.007.098.041l.99.991a.136.136 0 0 1 .041.099.134.134 0 0 1-.041.098l-.636.633-1.184-1.184.633-.636a.137.137 0 0 1 .1-.042Zm-4.208 6.5H9.25v-1.163l3.581-3.598 1.179 1.179-3.597 3.582Z"/></svg>
